docs/.gitbook/assets/icon-copy-clipboard-16@dark.svg

<svg width="32" height="32" viewBox="0 0 16 16" fill="none" xmlns="http://www.w3.org/2000/svg">
<rect x="0" y="0" width="16" height="16" fill="#181c1f"/>
<path fill-rule="evenodd" clip-rule="evenodd" d="M7.07573 2.5C6.90964 2.5 6.78972 2.65898 6.83535 2.81868L7.12774 3.84205C7.23901 4.2315 7.59497 4.5 8 4.5C8.40503 4.5 8.76099 4.2315 8.87226 3.84205L9.16465 2.81868C9.21028 2.65898 9.09037 2.5 8.92427 2.5H7.07573ZM5.49415 2C5.77133 1.41848 6.36275 1 7.07573 1H8.92427C9.63725 1 10.2287 1.41848 10.5058 2H11.25C12.7688 2 14 3.23122 14 4.75V12.25C14 13.7688 12.7688 15 11.25 15H4.75C3.23122 15 2 13.7688 2 12.25V4.75C2 3.23122 3.23122 2 4.75 2H5.49415ZM10.53 3.5L10.3145 4.25414C10.0193 5.28753 9.07475 6 8 6C6.92525 6 5.98071 5.28753 5.68546 4.25414L5.46999 3.5H4.75C4.05964 3.5 3.5 4.05964 3.5 4.75V12.25C3.5 12.9404 4.05964 13.5 4.75 13.5H11.25C11.9404 13.5 12.5 12.9404 12.5 12.25V4.75C12.5 4.05964 11.9404 3.5 11.25 3.5H10.53Z" fill="#fff"/>
</svg>

<svg xmlns="http://www.w3.org/2000/svg" width="32" height="32" fill="none" viewBox="0 0 16 16"><path fill="#181c1f" d="M0 0h16v16H0z"/><path fill="#fff" fill-rule="evenodd" d="M7.076 2.5a.25.25 0 0 0-.24.319l.292 1.023a.907.907 0 0 0 1.744 0l.293-1.023a.25.25 0 0 0-.24-.319zM5.494 2c.277-.582.869-1 1.582-1h1.848c.713 0 1.305.418 1.582 1h.744A2.75 2.75 0 0 1 14 4.75v7.5A2.75 2.75 0 0 1 11.25 15h-6.5A2.75 2.75 0 0 1 2 12.25v-7.5A2.75 2.75 0 0 1 4.75 2zm5.036 1.5-.215.754a2.407 2.407 0 0 1-4.63 0L5.47 3.5h-.72c-.69 0-1.25.56-1.25 1.25v7.5c0 .69.56 1.25 1.25 1.25h6.5c.69 0 1.25-.56 1.25-1.25v-7.5c0-.69-.56-1.25-1.25-1.25z" clip-rule="evenodd"/></svg>
